X:1395
T:Old Joe Clark
S:Inspired by Ken Brooks
Z:Nigel Gatherer <gatherer@argonet.co.uk>
M:7/8
L:1/8
K:A
e2 f2 =gaf|efed c2 d|e2 f2 =gaf|e2 ef ecd|
e2 f2 =gaf|efed ced|cBAc BAG|1A4-Acd:|2A4 AEF|]
A2 Ac Bcd|efed cBA|A2 AB cBA|=G4 GEF|
A2 Ac Bcd|efed cBA|cBAc BAG|1A4 AEF:|2A4-A3|]
